resources/images/google.svg

<svg width="24" height="24" xmlns="http://www.w3.org/2000/svg"><g fill-rule="nonzero" fill="none"><path d="M8.475 1.125C5.7 2.1 3.3 4.2 1.95 6.825c-.45.9-.825 1.875-.975 2.925-.525 2.475-.15 5.175.975 7.425.75 1.5 1.8 2.775 3.15 3.825 1.2.975 2.625 1.725 4.2 2.1 1.95.525 3.975.525 5.85.075a9.945 9.945 0 004.725-2.475c1.425-1.275 2.4-2.925 2.925-4.8.6-1.95.675-4.05.3-6.075H12.3v4.5h6.225C18.3 15.75 17.4 17.1 16.2 17.85c-.75.525-1.65.825-2.55.975-.9.15-1.875.15-2.775 0-.9-.15-1.8-.6-2.55-1.125-1.2-.825-2.175-2.1-2.625-3.525-.525-1.425-.525-3 0-4.5.375-.975.9-1.95 1.65-2.7.9-.975 2.1-1.65 3.45-1.875 1.125-.225 2.25-.225 3.375.15.9.3 1.8.825 2.475 1.425l2.1-2.1 1.125-1.125A11.76 11.76 0 0016.2 1.125a12.365 12.365 0 00-7.725 0z" fill="#FFF"/><path d="M8.475 1.125C10.95.3 13.725.3 16.2 1.2c1.35.525 2.625 1.275 3.675 2.325L18.75 4.65l-2.1 2.1c-.675-.675-1.575-1.2-2.475-1.425a7.306 7.306 0 00-3.375-.15c-1.275.3-2.475.975-3.45 1.875C6.6 7.8 6 8.775 5.7 9.75 4.425 8.775 3.225 7.8 1.95 6.825 3.3 4.2 5.7 2.1 8.475 1.125z" fill="#EA4335"/><path d="M.975 9.75c.225-.975.525-1.95.975-2.925C3.225 7.8 4.425 8.775 5.7 9.75c-.525 1.425-.525 3 0 4.5-1.275.975-2.475 1.95-3.75 2.925C.825 14.85.45 12.225.975 9.75z" fill="#FBBC05"/><path d="M12.225 9.825h10.8c.375 2.025.3 4.125-.3 6.075a10.69 10.69 0 01-2.925 4.8c-1.2-.975-2.4-1.875-3.675-2.85a5.698 5.698 0 002.325-3.525h-6.225v-4.5z" fill="#4285F4"/><path d="M1.95 17.175c1.275-.975 2.475-1.95 3.75-2.925.45 1.425 1.425 2.7 2.625 3.525.75.525 1.65.9 2.55 1.125.9.15 1.8.15 2.775 0 .9-.15 1.8-.525 2.55-.975 1.2.975 2.4 1.875 3.675 2.85-1.35 1.2-2.925 2.025-4.725 2.475-1.95.45-3.975.45-5.85-.075-1.5-.375-2.925-1.125-4.2-2.1-1.275-1.125-2.4-2.475-3.15-3.9z" fill="#34A853"/></g></svg>

<?xml version="1.0" encoding="UTF-8"?>
<svg width="24px" height="24px" viewBox="0 0 24 24" version="1.1" xmlns="http://www.w3.org/2000/svg" xmlns:xlink="http://www.w3.org/1999/xlink">
    <!-- Generator: sketchtool 55.2 (78181) - https://sketchapp.com -->
    <title>Google Logo</title>
    <desc>Created with sketchtool.</desc>
    <g id="desktop" stroke="none" stroke-width="1" fill="none" fill-rule="evenodd">
        <g id="login" transform="translate(-419.000000, -26.000000)" fill-rule="nonzero">
            <g id="google-login" transform="translate(419.000000, 26.000000)">
                <g id="Icons-/-logos-/-google">
                    <g id="iconfinder_2_939729">
                        <g id="Group">
                            <path d="M8.475,1.125 C5.7,2.1 3.3,4.2 1.95,6.825 C1.5,7.725 1.125,8.7 0.975,9.75 C0.45,12.225 0.825,14.925 1.95,17.175 C2.7,18.675 3.75,19.95 5.1,21 C6.3,21.975 7.725,22.725 9.3,23.1 C11.25,23.625 13.275,23.625 15.15,23.175 C16.875,22.8 18.525,21.975 19.875,20.7 C21.3,19.425 22.275,17.775 22.8,15.9 C23.4,13.95 23.475,11.85 23.1,9.825 C19.5,9.825 15.9,9.825 12.3,9.825 C12.3,11.325 12.3,12.825 12.3,14.325 C14.4,14.325 16.5,14.325 18.525,14.325 C18.3,15.75 17.4,17.1 16.2,17.85 C15.45,18.375 14.55,18.675 13.65,18.825 C12.75,18.975 11.775,18.975 10.875,18.825 C9.975,18.675 9.075,18.225 8.325,17.7 C7.125,16.875 6.15,15.6 5.7,14.175 C5.175,12.75 5.175,11.175 5.7,9.675 C6.075,8.7 6.6,7.725 7.35,6.975 C8.25,6 9.45,5.325 10.8,5.1 C11.925,4.875 13.05,4.875 14.175,5.25 C15.075,5.55 15.975,6.075 16.65,6.675 C17.325,6 18.075,5.25 18.75,4.575 C19.125,4.2 19.5,3.825 19.875,3.45 C18.825,2.475 17.55,1.65 16.2,1.125 C13.725,0.3 10.95,0.3 8.475,1.125 Z" id="Path" fill="#FFFFFF"></path>
                            <path d="M8.475,1.125 C10.95,0.3 13.725,0.3 16.2,1.2 C17.55,1.725 18.825,2.475 19.875,3.525 C19.5,3.9 19.125,4.275 18.75,4.65 C18.075,5.325 17.325,6.075 16.65,6.75 C15.975,6.075 15.075,5.55 14.175,5.325 C13.125,5.025 11.925,4.95 10.8,5.175 C9.525,5.475 8.325,6.15 7.35,7.05 C6.6,7.8 6,8.775 5.7,9.75 C4.425,8.775 3.225,7.8 1.95,6.825 C3.3,4.2 5.7,2.1 8.475,1.125 Z" id="Path" fill="#EA4335"></path>
                            <path d="M0.975,9.75 C1.2,8.775 1.5,7.8 1.95,6.825 C3.225,7.8 4.425,8.775 5.7,9.75 C5.175,11.175 5.175,12.75 5.7,14.25 C4.425,15.225 3.225,16.2 1.95,17.175 C0.825,14.85 0.45,12.225 0.975,9.75 Z" id="Path" fill="#FBBC05"></path>
                            <path d="M12.225,9.825 C15.825,9.825 19.425,9.825 23.025,9.825 C23.4,11.85 23.325,13.95 22.725,15.9 C22.2,17.7 21.225,19.35 19.8,20.7 C18.6,19.725 17.4,18.825 16.125,17.85 C17.325,17.025 18.15,15.75 18.45,14.325 C16.35,14.325 14.25,14.325 12.225,14.325 C12.225,12.825 12.225,11.325 12.225,9.825 Z" id="Path" fill="#4285F4"></path>
                            <path d="M1.95,17.175 C3.225,16.2 4.425,15.225 5.7,14.25 C6.15,15.675 7.125,16.95 8.325,17.775 C9.075,18.3 9.975,18.675 10.875,18.9 C11.775,19.05 12.675,19.05 13.65,18.9 C14.55,18.75 15.45,18.375 16.2,17.925 C17.4,18.9 18.6,19.8 19.875,20.775 C18.525,21.975 16.95,22.8 15.15,23.25 C13.2,23.7 11.175,23.7 9.3,23.175 C7.8,22.8 6.375,22.05 5.1,21.075 C3.825,19.95 2.7,18.6 1.95,17.175 Z" id="Path" fill="#34A853"></path>
                        </g>
                    </g>
                </g>
            </g>
        </g>
    </g>
</svg>
